public/svg_assets/socials_icons/tiktok.svg

<svg width="65" height="66" viewBox="0 0 65 66" fill="none" xmlns="http://www.w3.org/2000/svg">
<path d="M32.5 66C50.4492 66 65 51.2254 65 33C65 14.7746 50.4492 0 32.5 0C14.5507 0 0 14.7746 0 33C0 51.2254 14.5507 66 32.5 66Z" fill="#A1A1A1"/>
<path fill-rule="evenodd" clip-rule="evenodd" d="M43.1033 20.982C44.3929 22.3172 46.108 23.2773 48.0452 23.6684C48.6879 23.7975 49.343 23.8625 50 23.8623V30.1951C46.5292 30.1951 43.3155 29.1489 40.6922 27.3711V40.2943C40.6922 46.7594 35.1646 52 28.3459 52C24.887 52 21.7607 50.6516 19.5188 48.4784C17.3416 46.3683 16 43.48 16 40.2942C16 33.912 21.3872 28.7226 28.0856 28.5914L28.0858 33.6307V28.5914C28.7391 28.5783 29.3924 28.6139 30.0398 28.698V35.1723C29.4857 35.0057 28.9079 34.9212 28.3267 34.9216C25.2075 34.9216 22.6792 37.3188 22.6792 40.2757C22.6773 41.447 23.0821 42.5862 23.8309 43.5174C24.8628 44.8013 26.4923 45.6302 28.3265 45.6302C31.439 45.6302 33.963 43.2426 33.974 40.2939V15H40.692V15.8145C40.8825 17.7986 41.7626 19.5934 43.1033 20.982ZM20.7391 39.1229C20.7294 38.9946 20.7247 38.865 20.7247 38.7344C20.7247 37.8559 20.9476 37.0268 21.3429 36.2954C20.9475 37.0268 20.7245 37.8559 20.7245 38.7343C20.7245 38.865 20.7294 38.9946 20.7391 39.1229Z" fill="white"/>
</svg>

<svg width="65" height="66" fill="none" xmlns="http://www.w3.org/2000/svg">
    <path d="M32.5 66C50.45 66 65 51.225 65 33S50.45 0 32.5 0 0 14.775 0 33s14.55 33 32.5 33Z" fill="#A1A1A1"/>
    <path fill-rule="evenodd" clip-rule="evenodd" d="M43.103 20.982a9.473 9.473 0 0 0 4.942 2.686c.643.13 1.298.195 1.955.194v6.333c-3.47 0-6.684-1.046-9.308-2.824v12.923C40.692 46.76 35.165 52 28.346 52c-3.459 0-6.585-1.348-8.827-3.522C17.342 46.368 16 43.48 16 40.294c0-6.382 5.387-11.571 12.086-11.703v5.04-5.04c.653-.013 1.306.023 1.954.107v6.474a5.938 5.938 0 0 0-1.713-.25c-3.12 0-5.648 2.397-5.648 5.354a5.155 5.155 0 0 0 1.152 3.241c1.032 1.284 2.661 2.113 4.495 2.113 3.113 0 5.637-2.387 5.648-5.336V15h6.718v.815c.19 1.984 1.07 3.778 2.411 5.167ZM20.74 39.122Z" fill="#fff"/>
</svg>
